X: 6
M:2/4
L:1/16
K:G
((3uDEF)|vG2vG"4"uA GFED|GFGA BcdB|\
vG2vG"4"uA GFED|dBAG "4"AGEF|
|:udc|BdBG BdBG|c"4"ecA cecA|F"4"AFD FAFD|GDB,D GBdg|
"0"ef"0"ec "4"c'c"0"ec|d"4"edB bBdB|cdba gfef|g2{a}gf g2:|


